symbols/web/create_new_folder/materialsymbolsrounded/create_new_folder_20px.svg

<svg xmlns="http://www.w3.org/2000/svg" height="20" width="20"><path d="M12.5 13.333q.354 0 .615-.26.26-.261.26-.615v-.75h.75q.354 0 .615-.26.26-.26.26-.615 0-.354-.26-.614-.261-.261-.615-.261h-.75v-.75q0-.354-.26-.614-.261-.261-.615-.261t-.615.261q-.26.26-.26.614v.75h-.75q-.354 0-.615.261-.26.26-.26.614 0 .355.26.615.261.26.615.26h.75v.75q0 .354.26.615.261.26.615.26Zm-9.083 3.334q-.729 0-1.24-.511-.51-.51-.51-1.239V5.083q0-.729.51-1.239.511-.511 1.24-.511h4.104q.354 0 .677.136.323.135.573.385L10 5.083h6.583q.729 0 1.24.511.51.51.51 1.239v8.084q0 .729-.51 1.239-.511.511-1.24.511Zm0-11.584v9.834h13.166V6.833H9.271l-1.75-1.75H3.417Zm0 0v9.834Z"/></svg>

<svg xmlns="http://www.w3.org/2000/svg" height="20" width="20"><path d="M12.5 13.333Q12.854 13.333 13.115 13.073Q13.375 12.812 13.375 12.458V11.708H14.125Q14.479 11.708 14.74 11.448Q15 11.188 15 10.833Q15 10.479 14.74 10.219Q14.479 9.958 14.125 9.958H13.375V9.208Q13.375 8.854 13.115 8.594Q12.854 8.333 12.5 8.333Q12.146 8.333 11.885 8.594Q11.625 8.854 11.625 9.208V9.958H10.875Q10.521 9.958 10.26 10.219Q10 10.479 10 10.833Q10 11.188 10.26 11.448Q10.521 11.708 10.875 11.708H11.625V12.458Q11.625 12.812 11.885 13.073Q12.146 13.333 12.5 13.333ZM3.417 16.667Q2.688 16.667 2.177 16.156Q1.667 15.646 1.667 14.917V5.083Q1.667 4.354 2.177 3.844Q2.688 3.333 3.417 3.333H7.521Q7.875 3.333 8.198 3.469Q8.521 3.604 8.771 3.854L10 5.083H16.583Q17.312 5.083 17.823 5.594Q18.333 6.104 18.333 6.833V14.917Q18.333 15.646 17.823 16.156Q17.312 16.667 16.583 16.667ZM3.417 5.083V14.917Q3.417 14.917 3.417 14.917Q3.417 14.917 3.417 14.917H16.583Q16.583 14.917 16.583 14.917Q16.583 14.917 16.583 14.917V6.833Q16.583 6.833 16.583 6.833Q16.583 6.833 16.583 6.833H9.271L7.521 5.083H3.417Q3.417 5.083 3.417 5.083Q3.417 5.083 3.417 5.083ZM3.417 5.083Q3.417 5.083 3.417 5.083Q3.417 5.083 3.417 5.083V6.833Q3.417 6.833 3.417 6.833Q3.417 6.833 3.417 6.833V14.917Q3.417 14.917 3.417 14.917Q3.417 14.917 3.417 14.917Q3.417 14.917 3.417 14.917Q3.417 14.917 3.417 14.917Z"/></svg>
